X: 1
T: Coleford Jigge, The
M: 4/4
L: 1/8
R: hornpipe
K: Dmaj
|:F2FE DFAc|dAFD E3E|DFAc dcdf|edcB AGFE|
F2FE DFAc|dAFD E3E|DFAd cdec|1 d4 d3E:|2 d4 d2cB||
|:Acef gfge|defg a2fa|g2eg f2df|edcB AGFE|
F2FE DFAc|dAFD E3E|DFAd cdec|1 d4 d2cB:|2 d4 d4||
